X: 1
T: First Light
M: 4/4
L: 1/8
R: strathspey
K: Amix
A2 B<d e>d e<g|A2 B<d e2 e2|a2 ge d>B d<e|1g>e dB e2 ed/B/:|2g>e dB e2 e2||
a2 ge d>e ga|b>a g<e g2 a2|b>a ge d>e B/A/G|1A2 B<d e2 e2:|2A2 B<d e2 ed/B/||
